X:7
T:No.27 The Red Crow
C:reel
L:1/8
M:4/4
K:G
A,2EA, B,G,G,B,|A,2EG FDEG|AGED EA,A,D|
EA,DC B,G,G,B,|A,2EA, B,G,G,B,|A,2EG FDEG|
AGED EA,CE|[1DCDB, A,G,A,B,:|[2DCDB,A,4||
A2eA ceAc|eAce dcBA|G2dc BdGB|
dGBd edcB|A2eA ceAc|eAcb ageg|
agec d=fed|cABG A2 (3AAA||A2eA ceAc|
eAce dcBA|G2dc BdGB|dGBd edcB|
A2aA gAfA|A2cA BAGB|cBAG AGED|ECDB, CA,B,G,||
